dist/img/socials/youtube.svg

<svg width="18" height="13" viewBox="0 0 18 13" fill="none" xmlns="http://www.w3.org/2000/svg">
<path fill-rule="evenodd" clip-rule="evenodd" d="M12.0062 5.77285L7.4938 3.51719C7.4938 3.51719 6.24039 2.94726 6.24039 4.01864V9.03097C6.24039 9.03097 6.26358 9.7955 7.4938 9.28148C8.34978 8.92371 12.0062 7.02582 12.0062 7.02582C12.0062 7.02582 12.9391 6.42816 12.0062 5.77285ZM17.5213 10.7852C16.9624 12.3749 15.7669 12.5797 14.7637 12.7901C13.2852 13.1002 3.77237 13.0612 2.22922 12.5394C1.26706 12.2141 0.675032 12.0741 0.223857 9.78271C-0.0650079 8.3165 -0.0840778 4.00304 0.223857 2.51494C0.52204 1.07408 1.27096 0.397534 2.73067 0.259278C6.65148 -0.112151 13.205 -0.0597085 15.265 0.259278C17.1748 0.554861 17.5739 1.69385 17.772 2.76545C18.0927 4.50037 18.1304 9.05243 17.5213 10.7852Z" fill="white"/>
</svg>

<svg width="18" height="13" fill="none" xmlns="http://www.w3.org/2000/svg"><path fill-rule="evenodd" clip-rule="evenodd" d="M12.006 5.773 7.494 3.517s-1.254-.57-1.254.502V9.03s.024.764 1.254.25c.856-.357 4.512-2.255 4.512-2.255s.933-.598 0-1.253Zm5.515 5.012c-.559 1.59-1.754 1.795-2.757 2.005-1.479.31-10.992.271-12.535-.25-.962-.326-1.554-.466-2.005-2.757-.289-1.466-.308-5.78 0-7.268C.522 1.075 1.27.398 2.73.259c3.92-.371 10.474-.319 12.534 0 1.91.296 2.309 1.435 2.507 2.506.32 1.735.358 6.287-.25 8.02Z" fill="#fff"/></svg>
